svg/system/dots_vertical_fill.svg

<?xml version="1.0" encoding="UTF-8"?>
<svg width="24px" height="24px" viewBox="0 0 24 24" version="1.1" xmlns="http://www.w3.org/2000/svg" xmlns:xlink="http://www.w3.org/1999/xlink">
    <title>dots_vertical_fill</title>
    <g id="Icon" stroke="none" stroke-width="1" fill="none" fill-rule="evenodd">
        <g id="System" transform="translate(-720.000000, -528.000000)" fill-rule="nonzero">
            <g id="dots_vertical_fill" transform="translate(720.000000, 528.000000)">
                <path d="M24,0 L24,24 L0,24 L0,0 L24,0 Z M12.5935,23.2578 L12.5819,23.2595 L12.5109,23.295 L12.4919,23.2987 L12.4767,23.295 L12.4057,23.2595 C12.3958,23.2564 12.387,23.259 12.3821,23.2649 L12.378,23.2758 L12.3609,23.7031 L12.3659,23.7235 L12.3769,23.7357 L12.4805,23.8097 L12.4953,23.8136 L12.5071,23.8097 L12.6107,23.7357 L12.6233,23.7197 L12.6267,23.7031 L12.6096,23.2758 C12.6076,23.2657 12.601,23.2593 12.5935,23.2578 Z M12.8584,23.1453 L12.8445,23.1473 L12.6598,23.2397 L12.6499,23.2499 L12.6472,23.2611 L12.6651,23.6906 L12.6699,23.7034 L12.6784,23.7105 L12.8793,23.8032 C12.8914,23.8069 12.9022,23.803 12.9078,23.7952 L12.9118,23.7812 L12.8777,23.1665 C12.8753,23.1546 12.8674,23.147 12.8584,23.1453 Z M12.143,23.1473 C12.1332,23.1424 12.1222,23.1453 12.1156,23.1526 L12.1099,23.1665 L12.0758,23.7812 C12.0751,23.7927 12.0828,23.8019 12.0926,23.8046 L12.1083,23.8032 L12.3092,23.7105 L12.3186,23.7024 L12.3225,23.6906 L12.3404,23.2611 L12.3372,23.2485 L12.3278,23.2397 L12.143,23.1473 Z" id="MingCute"></path>
                <path d="M12,7 C10.8954,7 10,7.89543 10,9 C10,10.1046 10.8954,11 12,11 C13.1046,11 14,10.1046 14,9 C14,7.89543 13.1046,7 12,7 Z M4,15 C4,13.8954 4.89543,13 6,13 C7.10457,13 8,13.8954 8,15 C8,16.1046 7.10457,17 6,17 C4.89543,17 4,16.1046 4,15 Z M12,13 C10.8954,13 10,13.8954 10,15 C10,16.1046 10.8954,17 12,17 C13.1046,17 14,16.1046 14,15 C14,13.8954 13.1046,13 12,13 Z M18,13 C16.8954,13 16,13.8954 16,15 C16,16.1046 16.8954,17 18,17 C19.1046,17 20,16.1046 20,15 C20,13.8954 19.1046,13 18,13 Z M16,9 C16,7.89543 16.8954,7 18,7 C19.1046,7 20,7.89543 20,9 C20,10.1046 19.1046,11 18,11 C16.8954,11 16,10.1046 16,9 Z M6,7 C4.89543,7 4,7.89543 4,9 C4,10.1046 4.89543,11 6,11 C7.10457,11 8,10.1046 8,9 C8,7.89543 7.10457,7 6,7 Z" id="形状" fill="#09244B"></path>
            </g>
        </g>
    </g>
</svg>

<svg xmlns="http://www.w3.org/2000/svg" width="24" height="24"><g fill="none" fill-rule="nonzero"><path d="M24 0v24H0V0h24ZM12.594 23.258l-.012.002-.071.035-.02.004-.014-.004-.071-.036c-.01-.003-.019 0-.024.006l-.004.01-.017.428.005.02.01.013.104.074.015.004.012-.004.104-.074.012-.016.004-.017-.017-.427c-.002-.01-.009-.017-.016-.018Zm.264-.113-.014.002-.184.093-.01.01-.003.011.018.43.005.012.008.008.201.092c.012.004.023 0 .029-.008l.004-.014-.034-.614c-.003-.012-.01-.02-.02-.022Zm-.715.002a.023.023 0 0 0-.027.006l-.006.014-.034.614c0 .012.007.02.017.024l.015-.002.201-.093.01-.008.003-.011.018-.43-.003-.012-.01-.01-.184-.092Z"/><path fill="#09244B" d="M12 7a2 2 0 1 0 0 4 2 2 0 0 0 0-4Zm-8 8a2 2 0 1 1 4 0 2 2 0 0 1-4 0Zm8-2a2 2 0 1 0 0 4 2 2 0 0 0 0-4Zm6 0a2 2 0 1 0 0 4 2 2 0 0 0 0-4Zm-2-4a2 2 0 1 1 4 0 2 2 0 0 1-4 0ZM6 7a2 2 0 1 0 0 4 2 2 0 0 0 0-4Z"/></g></svg>
